app/img/_src/main/advantages-of-lab/adv-3.svg

<svg width="60" height="60" viewBox="0 0 60 60" fill="none" xmlns="http://www.w3.org/2000/svg">
<g clip-path="url(#clip0)">
<path d="M59.808 25.2621L50.1998 10.6108C49.9831 10.2805 49.6149 10.0815 49.22 10.0815H10.8255C10.4314 10.0815 10.0638 10.2796 9.84702 10.6088L0.223343 25.2164C0.177523 25.2796 0.137796 25.3478 0.104632 25.4207C-0.0853288 25.8395 -0.0126725 26.3306 0.290374 26.6766L5.1683 32.2462C5.59475 32.7331 6.33491 32.7821 6.8217 32.3557C7.3085 31.9293 7.35748 31.189 6.93116 30.7023L3.75573 27.0764H19.5176L27.4379 54.1171L18.4877 43.8978C18.0614 43.4108 17.321 43.3619 16.8343 43.7882C16.3475 44.2146 16.2985 44.9549 16.7249 45.4416L29.1221 59.5968C29.3446 59.8508 29.666 59.9966 30.0036 59.9966C30.3414 59.9966 30.6626 59.8508 30.885 59.5967L44.0838 44.5226C44.5103 44.0357 44.4612 43.2954 43.9741 42.8692C43.4871 42.4428 42.7468 42.4919 42.3207 42.9789L32.5696 54.1156L40.4896 27.0763H56.2448L48.9578 35.399C48.5313 35.8859 48.5804 36.6262 49.0674 37.0524C49.2897 37.2471 49.5649 37.3426 49.8389 37.3426C50.1649 37.3426 50.4893 37.2073 50.7208 36.9427L59.7098 26.6765C60.0565 26.2806 60.0967 25.7022 59.808 25.2621ZM3.34838 24.7329L10.8232 13.3867L18.264 24.7329H3.34838ZM12.9951 12.4252H27.8338L20.4145 23.7386L12.9951 12.4252ZM30.0035 13.3901L37.442 24.7329H22.565L30.0035 13.3901ZM30.0035 54.5393L21.9595 27.0764H38.0475L30.0035 54.5393ZM39.6117 23.768L32.1732 12.4252H47.0504L39.6117 23.768ZM41.7814 24.7329L49.22 13.3901L56.6584 24.7329H41.7814Z" fill="#8888D3"/>
<path d="M18.4206 38.322C15.398 38.322 12.9388 35.8628 12.9388 32.8402C12.9388 32.1931 12.4141 31.6685 11.767 31.6685C11.1199 31.6685 10.5953 32.1931 10.5953 32.8402C10.5953 35.8628 8.13609 38.322 5.11347 38.322C4.46648 38.322 3.94171 38.8467 3.94171 39.4938C3.94171 40.1409 4.46648 40.6655 5.11347 40.6655C8.13609 40.6655 10.5953 43.1247 10.5953 46.1473C10.5953 46.7944 11.12 47.3191 11.767 47.3191C12.414 47.3191 12.9388 46.7944 12.9388 46.1473C12.9388 43.1247 15.398 40.6655 18.4206 40.6655C19.0677 40.6655 19.5923 40.1409 19.5923 39.4938C19.5923 38.8467 19.0677 38.322 18.4206 38.322ZM11.767 42.0322C11.1282 41.003 10.2578 40.1327 9.22874 39.4938C10.2578 38.855 11.1281 37.9846 11.767 36.9554C12.4058 37.9845 13.2763 38.8549 14.3053 39.4938C13.2763 40.1327 12.4059 41.0029 11.767 42.0322Z" fill="#8888D3"/>
<path d="M58.8282 4.69021C56.8899 4.69021 55.3129 3.11321 55.3129 1.17493C55.3129 0.527822 54.7881 0.00317383 54.1411 0.00317383C53.4941 0.00317383 52.9694 0.527822 52.9694 1.17493C52.9694 3.11321 51.3924 4.69021 49.4541 4.69021C48.8071 4.69021 48.2823 5.21485 48.2823 5.86196C48.2823 6.50907 48.8071 7.03372 49.4541 7.03372C51.3924 7.03372 52.9694 8.61071 52.9694 10.549C52.9694 11.1961 53.4941 11.7208 54.1411 11.7208C54.7881 11.7208 55.3129 11.1961 55.3129 10.549C55.3129 8.61071 56.8899 7.03372 58.8282 7.03372C59.4752 7.03372 59.9999 6.50907 59.9999 5.86196C59.9999 5.21485 59.4752 4.69021 58.8282 4.69021ZM54.1411 7.03735C53.8068 6.59228 53.4108 6.1963 52.9657 5.86196C53.4108 5.52763 53.8068 5.13165 54.1411 4.68657C54.4755 5.13165 54.8714 5.52763 55.3165 5.86196C54.8714 6.19618 54.4754 6.59228 54.1411 7.03735Z" fill="#8888D3"/>
<path d="M47.2011 39.3014C46.9832 39.0822 46.6809 38.958 46.3728 38.958C46.0645 38.958 45.7635 39.0822 45.5444 39.3014C45.3264 39.5193 45.201 39.8217 45.201 40.1298C45.201 40.4379 45.3263 40.7402 45.5444 40.9582C45.7624 41.1761 46.0645 41.3015 46.3728 41.3015C46.681 41.3015 46.9832 41.1761 47.2011 40.9582C47.4191 40.7402 47.5446 40.4379 47.5446 40.1298C47.5446 39.8217 47.4192 39.5193 47.2011 39.3014Z" fill="#8888D3"/>
</g>
<defs>
<clipPath id="clip0">
<rect width="60" height="60" fill="white"/>
</clipPath>
</defs>
</svg>

<svg width="60" height="60" fill="none" xmlns="http://www.w3.org/2000/svg"><g clip-path="url(#clip0)" fill="#8888D3"><path d="M59.808 25.262L50.2 10.611a1.172 1.172 0 00-.98-.53H10.825c-.394 0-.761.199-.978.528L.223 25.216a1.172 1.172 0 00.067 1.46l4.878 5.57a1.172 1.172 0 101.763-1.544l-3.175-3.626h15.762l7.92 27.041-8.95-10.22a1.172 1.172 0 10-1.763 1.545l12.397 14.155a1.172 1.172 0 001.763 0l13.199-15.074a1.171 1.171 0 10-1.763-1.544L32.57 54.116l7.92-27.04h15.755L48.958 35.4a1.171 1.171 0 101.763 1.544l8.989-10.266c.346-.396.387-.975.098-1.415zm-56.46-.53l7.475-11.345 7.441 11.346H3.348zm9.647-12.307h14.839l-7.42 11.314-7.419-11.314zm17.008.965l7.439 11.343H22.565l7.438-11.343zm0 41.15L21.96 27.075h16.088L30.005 54.54zm9.609-30.772l-7.439-11.343H47.05l-7.438 11.343zm2.17.965L49.22 13.39l7.438 11.343H41.781z"/><path d="M18.42 38.322a5.488 5.488 0 01-5.481-5.482 1.172 1.172 0 00-2.344 0 5.488 5.488 0 01-5.482 5.482 1.172 1.172 0 000 2.343 5.488 5.488 0 015.482 5.482 1.172 1.172 0 002.344 0 5.488 5.488 0 015.482-5.481 1.172 1.172 0 000-2.344zm-6.653 3.71a7.886 7.886 0 00-2.538-2.538 7.886 7.886 0 002.538-2.539 7.888 7.888 0 002.538 2.539 7.887 7.887 0 00-2.538 2.538zM58.828 4.69a3.52 3.52 0 01-3.515-3.515 1.172 1.172 0 00-2.344 0 3.52 3.52 0 01-3.515 3.515 1.172 1.172 0 000 2.344 3.52 3.52 0 013.515 3.515 1.172 1.172 0 002.344 0 3.52 3.52 0 013.515-3.515 1.172 1.172 0 000-2.344zm-4.687 2.347a5.91 5.91 0 00-1.175-1.175 5.92 5.92 0 001.175-1.175c.334.445.73.84 1.175 1.175a5.92 5.92 0 00-1.175 1.175zm-6.94 32.264a1.175 1.175 0 00-.828-.343c-.308 0-.61.124-.829.343a1.18 1.18 0 00-.343.829c0 .308.125.61.343.828.218.218.52.343.829.343.308 0 .61-.125.828-.343a1.18 1.18 0 00.344-.828c0-.308-.126-.61-.344-.829z"/></g><defs><clipPath id="clip0"><path fill="#fff" d="M0 0h60v60H0z"/></clipPath></defs></svg>
